X:9
T:Om MaNi Padme Hum Shanti
M:4/4
L:1/16
Q:1/4=169
K:Db
|: _D2_F2_A2_d2 f2_a2_d'2_a2 | _A2_c2_e2_a2 c'2_e'2_a'2_e'2 | _B2_D2_F2_B2 _d2_f2_b2_f2 | _G2_B2_d2_g2 _b2_d'2_g'2_d'2 :|
| _d'16 | _c'16 | _b16 | _a16 |
